img/svg/oppfoelgingsdialog_tiltak_slett--hover.svg

<?xml version="1.0" encoding="UTF-8" standalone="no"?>
<svg width="23px" height="24px" viewBox="0 0 23 24" version="1.1" xmlns="http://www.w3.org/2000/svg" xmlns:xlink="http://www.w3.org/1999/xlink">
    <!-- Generator: Sketch 47.1 (45422) - http://www.bohemiancoding.com/sketch -->
    <title>icon/fill/ bin 1</title>
    <desc>Created with Sketch.</desc>
    <defs></defs>
    <g id="Vurdere-tiltak" stroke="none" stroke-width="1" fill="none" fill-rule="evenodd">
        <g id="AG_Tiltak-lagt-inn-av-sykmeldt-Copy" transform="translate(-110.000000, -1088.000000)" fill="#0067C5">
            <g id="icon/fill/-bin-1" transform="translate(110.000000, 1088.000000)">
                <g id="bin-1">
                    <path d="M22.5,3 L19.5,3 L16,3 L16,0.5 C16,0.224 15.776,0 15.5,0 L7.5,0 C7.224,0 7,0.224 7,0.5 L7,3 L3.5,3 L0.5,3 C0.224,3 0,3.224 0,3.5 C0,3.776 0.224,4 0.5,4 L3,4 L3,23.5 C3,23.776 3.224,24 3.5,24 L19.5,24 C19.776,24 20,23.776 20,23.5 L20,4 L22.5,4 C22.776,4 23,3.776 23,3.5 C23,3.224 22.776,3 22.5,3 Z M8,18.5 C8,18.776 7.776,19 7.5,19 C7.224,19 7,18.776 7,18.5 L7,7.5 C7,7.224 7.224,7 7.5,7 C7.776,7 8,7.224 8,7.5 L8,18.5 Z M8,1 L15,1 L15,3 L8,3 L8,1 Z M12,18.5 C12,18.776 11.776,19 11.5,19 C11.224,19 11,18.776 11,18.5 L11,7.5 C11,7.224 11.224,7 11.5,7 C11.776,7 12,7.224 12,7.5 L12,18.5 Z M16,18.5 C16,18.776 15.776,19 15.5,19 C15.224,19 15,18.776 15,18.5 L15,7.5 C15,7.224 15.224,7 15.5,7 C15.776,7 16,7.224 16,7.5 L16,18.5 Z" id="Shape" fill-rule="nonzero"></path>
                </g>
            </g>
        </g>
    </g>
</svg>

<svg width="23" height="24" xmlns="http://www.w3.org/2000/svg"><path d="M22.5 3H16V.5a.5.5 0 0 0-.5-.5h-8a.5.5 0 0 0-.5.5V3H.5a.5.5 0 0 0 0 1H3v19.5a.5.5 0 0 0 .5.5h16a.5.5 0 0 0 .5-.5V4h2.5a.5.5 0 0 0 0-1zM8 18.5a.5.5 0 0 1-1 0v-11a.5.5 0 0 1 1 0v11zM8 1h7v2H8V1zm4 17.5a.5.5 0 0 1-1 0v-11a.5.5 0 0 1 1 0v11zm4 0a.5.5 0 0 1-1 0v-11a.5.5 0 0 1 1 0v11z" fill-rule="nonzero" fill="#0067C5"/></svg>
